src/images/heart.svg

<svg width="28" height="25" viewBox="0 0 28 25" fill="none" xmlns="http://www.w3.org/2000/svg">
<path d="M24.9216 3.0899V0.102723H15.5986V3.08288H12.5903V0.0992126H3.25317V3.10044H0.567871V12.1287H3.2602V15.4353H6.27897V18.1487H9.28019V21.4553H12.299V24.1441H15.9004V21.4483H18.9192V18.1416H21.9274V15.4248H24.9357V12.1217H27.6105V3.0899H24.9216ZM7.16003 9.69961H3.57611V3.41986H7.16003V9.69961Z" fill="#EE0000"/>
</svg>

<svg width="28" height="25" fill="none" xmlns="http://www.w3.org/2000/svg"><path d="M24.922 3.09V.103h-9.323v2.98H12.59V.099H3.253V3.1H.568v9.029H3.26v3.306H6.28v2.714H9.28v3.306H12.3v2.69H15.9v-2.697h3.02v-3.306h3.007v-2.717h3.009v-3.303h2.674V3.09h-2.688zM7.16 9.7H3.576V3.42H7.16V9.7z" fill="#E00"/></svg>
